resources/svg/double-caret-left-small.svg

<svg xmlns="http://www.w3.org/2000/svg" viewBox="0 0 15 15" fill="currentColor"><path fill-rule="evenodd" clip-rule="evenodd" d="M7.20712 5.50001L5.20712 7.50001L7.20712 9.50001L6.50001 10.2071L3.79291 7.50001L6.50001 4.79291L7.20712 5.50001ZM10.2071 5.50001L8.20712 7.50001L10.2071 9.50001L9.50001 10.2071L6.79291 7.50001L9.50001 4.79291L10.2071 5.50001Z" fill="black"/></svg>

<svg xmlns="http://www.w3.org/2000/svg" viewBox="0 0 15 15" fill="currentColor"><path fill-rule="evenodd" clip-rule="evenodd" d="M7.207 5.5l-2 2 2 2-.707.707L3.793 7.5 6.5 4.793l.707.707zm3 0l-2 2 2 2-.707.707L6.793 7.5 9.5 4.793l.707.707z" fill="currentColor"/></svg>
